X:1
T:Gone from My Heart
T:Gone from My Heart
T:Arr from Stephen Foster by Daniel B. Towner
T:London Hymn Book
T:Public Domain Courtesy of the Cyber Hymnal™
T:Public Domain Courtesy of the Cyber Hymnal™
C:Arr from Stephen Foster by Daniel B. Towner
Z:Public Domain
Z:Courtesy of the Cyber Hymnal™
%%score ( 1 2 ) ( 3 4 )
L:1/8
Q:1/4=113
M:4/4
K:D
V:1 treble 
V:2 treble 
V:3 bass 
V:4 bass 
V:1
 D2 [DF]>[EG] [FA]3 [FA] | [GB][Bd][Ac][GB] F4 | D2 [DF]>[EG] [FA]3 [FA] | [GB][FA][EG][DF] [CE]4 | %4
w: 1.~Gone from my heart the|world and all its charms;|Now through the blood I’m|saved from all a- larms;|
w: 2.~Once I was lost, and|way down deep in sin;|Once was a slave to|pas- sions fierce with- in;|
w: 3.~Once I was bound, but|now I am set free;|Once I was blind, but|now the light I see;|
 D2 [DF]>[EG] [FA]3 [FA] | [GB][Bd][Ac][GB] [FA]3 [Fd] | [Ec]>[Fd] [Ge][Gc] [Fd][GB][DA][DB] | %7
w: Down at the cross my|heart is bend- ing low; The|pre- cious blood of Je- sus cleans- es|
w: Once was a- fraid to|meet an ang- ry God But|now I’m cleansed from ev- ’ry stain through|
w: Once I was dead, but|now in Christ I live, To|tell the world a- round the peace that|
 [DF]2 [CE]2 D4 ||"^Refrain" [FA]4 [DF] [FA]3 | [FA]4 [DF] [FA]2 [FA] | [GB]2 [Bd]2 [Ac]2 [GB]2 | %11
w: white as snow.||||
w: Je- sus’ blood.||||
w: He doth give.||||
 [FA]6 [Fd]2 | [Ec]3 [Fd] [Ge]2 [Gc]2 | ([Fd]2 [GB]2) [DA]2 [DB]2 | [DF]4 [CE]4 | D6 |] %16
w: |||||
w: |||||
w: |||||
V:2
 D2 x6 | x4 F4 | D2 x6 | x8 | D2 x6 | x8 | x8 | x4 D4 || x8 | x8 | x8 | x8 | x8 | x8 | x8 | D6 |] %16
V:3
 [D,F,]2 [D,A,]>[D,A,] [D,D]3 [D,D] | [G,D][G,D][G,D][G,D] [D,D]4 | %2
w: ~ ~ ~ ~ ~|~ ~ ~ ~ ~|
 [D,F,]2 [D,A,]>[D,A,] [D,D]3 [D,D] | [D,D][D,D][D,A,][D,A,] [A,,A,]4 | %4
w: ~ ~ ~ ~ ~|~ ~ ~ ~ ~|
 [D,F,]2 [D,A,]>[D,A,] [D,D]3 [D,D] | [G,D][G,D][G,D][G,D] [D,D]3 [D,A,] | %6
w: ~ ~ ~ ~ ~|~ ~ ~ ~ ~ ~|
 A,>A, [A,C][A,E] [B,,D][B,,D][F,D][F,D] | A,2 [A,,G,]2 [D,F,]4 || [D,D]4 [D,A,] [D,D]3 | %9
w: ~ ~ ~ ~ ~ ~ ~ ~|~ ~ ~|I love Him,|
 [D,D]4 [D,A,] [D,D]2 [D,D] | [G,D]2 [G,D]2 [G,D]2 [G,D]2 | [D,D]6 [D,A,]2 | A,3 A, [A,C]2 [A,E]2 | %13
w: I love him, Be-|cause He first loved|me, And|pur- chased my sal-|
 [D,D]4 [F,D]2 [G,D]2 | A,4 (A,2 G,2) | [D,F,]6 |] %16
w: va- tion On|Cal- v’ry’s *|tree.|
V:4
 x8 | x8 | x8 | x8 | x8 | x8 | A,3/2 x13/2 | A,2 x6 || x8 | x8 | x8 | x8 | A,3 A, x4 | x8 | %14
 A,4 A,,4 | x6 |] %16

